X: 11382
Q: "Slow."
M: C
L: 1/8
K: Eb
E3F G>FGB | c2F>G GFEC |\
E3F GBF>G | E4 B,4 |\
E2e>c B<GF>G |1 E4 B,2 :|2 E4 B,4 ||
|:\
e3f efge | fefg {g}f2ec |\
gfec ecBA | AGFE {G}F2EC |\
e>fec B<GF>G |1 E4 B,4 :|2 E4 B,2 |]


